SVG/dedent.svg

<?xml version="1.0" encoding="utf-8"?>
<!-- Generated by IcoMoon.io -->
<!DOCTYPE svg PUBLIC "-//W3C//DTD SVG 1.1//EN" "http://www.w3.org/Graphics/SVG/1.1/DTD/svg11.dtd">
<svg version="1.1" xmlns="http://www.w3.org/2000/svg" xmlns:xlink="http://www.w3.org/1999/xlink" width="14" height="14" viewBox="0 0 14 14">
<path fill="#444444" d="M3 4.25v4.5q0 0.102-0.074 0.176t-0.176 0.074q-0.109 0-0.18-0.070l-2.25-2.25q-0.070-0.070-0.070-0.18t0.070-0.18l2.25-2.25q0.070-0.070 0.18-0.070 0.102 0 0.176 0.074t0.074 0.176zM14 10.25v1.5q0 0.102-0.074 0.176t-0.176 0.074h-13.5q-0.102 0-0.176-0.074t-0.074-0.176v-1.5q0-0.102 0.074-0.176t0.176-0.074h13.5q0.102 0 0.176 0.074t0.074 0.176zM14 7.25v1.5q0 0.102-0.074 0.176t-0.176 0.074h-8.5q-0.102 0-0.176-0.074t-0.074-0.176v-1.5q0-0.102 0.074-0.176t0.176-0.074h8.5q0.102 0 0.176 0.074t0.074 0.176zM14 4.25v1.5q0 0.102-0.074 0.176t-0.176 0.074h-8.5q-0.102 0-0.176-0.074t-0.074-0.176v-1.5q0-0.102 0.074-0.176t0.176-0.074h8.5q0.102 0 0.176 0.074t0.074 0.176zM14 1.25v1.5q0 0.102-0.074 0.176t-0.176 0.074h-13.5q-0.102 0-0.176-0.074t-0.074-0.176v-1.5q0-0.102 0.074-0.176t0.176-0.074h13.5q0.102 0 0.176 0.074t0.074 0.176z"></path>
</svg>

<svg xmlns="http://www.w3.org/2000/svg" viewBox="0 0 14 14"><path d="M3 4.25v4.5q0 .102-.074.176T2.75 9q-.11 0-.18-.07L.32 6.68Q.25 6.61.25 6.5t.07-.18l2.25-2.25Q2.64 4 2.75 4q.102 0 .176.074T3 4.25zm11 6v1.5q0 .102-.074.176T13.75 12H.25q-.102 0-.176-.074T0 11.75v-1.5q0-.102.074-.176T.25 10h13.5q.102 0 .176.074t.074.176zm0-3v1.5q0 .102-.074.176T13.75 9h-8.5q-.102 0-.176-.074T5 8.75v-1.5q0-.102.074-.176T5.25 7h8.5q.102 0 .176.074T14 7.25zm0-3v1.5q0 .102-.074.176T13.75 6h-8.5q-.102 0-.176-.074T5 5.75v-1.5q0-.102.074-.176T5.25 4h8.5q.102 0 .176.074T14 4.25zm0-3v1.5q0 .102-.074.176T13.75 3H.25q-.102 0-.176-.074T0 2.75v-1.5q0-.102.074-.176T.25 1h13.5q.102 0 .176.074T14 1.25z" /></svg>
